X: 45
T:Flower o' the Quern, The
M:4/4
L:1/4
C:J. Scott Skinner
R:Air
K:A
E|"A"A A "E"G F/E/|"D"d d "A"c e |"A"e c/B/ A B/c/|"E"B3 E|"A"A A "E"G F
/E/|!
"D"d d "A"c e|"E"e/d/ F/B/ "A"A "E"G |"A"A3||A|"D"d d3/4d/4 d f3/4f/4|"A
"e e3/4c/4 e "D"a3/4f/4|!
"A"e c3/4B/4 A B/c/|"E"B3 E|"A"A A "E"G F/E/|"D"d d "A"c e |
"E"e/d/ F/B/ "A"A/G/ c3/4B/4|"A"A3||
